build/img/icon-q_mystic.svg

<svg width="30" height="30" viewBox="0 0 30 30" fill="none" xmlns="http://www.w3.org/2000/svg">
<path d="M18.5156 7.08984C17.0617 7.08984 15.8789 8.27268 15.8789 9.72656C15.8789 11.1804 17.0617 12.3633 18.5156 12.3633C19.9695 12.3633 21.1523 11.1804 21.1523 9.72656C21.1523 8.27268 19.9695 7.08984 18.5156 7.08984ZM18.5156 10.6055C18.031 10.6055 17.6367 10.2112 17.6367 9.72656C17.6367 9.24193 18.031 8.84766 18.5156 8.84766C19.0003 8.84766 19.3945 9.24193 19.3945 9.72656C19.3945 10.2112 19.0003 10.6055 18.5156 10.6055Z" fill="white"/>
<path d="M11.4844 7.08984C10.0305 7.08984 8.84766 8.27268 8.84766 9.72656C8.84766 11.1804 10.0305 12.3633 11.4844 12.3633C12.9383 12.3633 14.1211 11.1804 14.1211 9.72656C14.1211 8.27268 12.9383 7.08984 11.4844 7.08984ZM11.4844 10.6055C10.9997 10.6055 10.6055 10.2112 10.6055 9.72656C10.6055 9.24193 10.9997 8.84766 11.4844 8.84766C11.969 8.84766 12.3633 9.24193 12.3633 9.72656C12.3633 10.2112 11.969 10.6055 11.4844 10.6055Z" fill="white"/>
<path d="M27.3633 14.1211H24.668V9.72656C24.668 4.3633 20.3309 0 15 0C9.66908 0 5.33203 4.3633 5.33203 9.72656V14.1211H2.63672C1.18283 14.1211 0 15.3039 0 16.7578V18.5156C0 19.9695 1.18283 21.1523 2.63672 21.1523C3.33721 21.1523 4.00477 20.883 4.51635 20.3939C4.71152 20.2073 4.87418 19.998 5.00156 19.7725L5.22891 19.8862L3.58822 28.9648C3.54187 29.2211 3.6116 29.4847 3.77865 29.6846C3.94564 29.8845 4.19268 30 4.45312 30H25.5469C25.8073 30 26.0544 29.8845 26.2213 29.6846C26.3884 29.4847 26.4581 29.2211 26.4118 28.9648L24.7711 19.8862L24.9984 19.7725C25.4464 20.5658 26.3276 21.1523 27.3633 21.1523C28.8172 21.1523 30 19.9695 30 18.5156V16.7578C30 15.3039 28.8172 14.1211 27.3633 14.1211ZM28.2422 18.5156C28.2422 19.0003 27.8479 19.3945 27.3633 19.3945C26.8639 19.3945 26.4258 18.9838 26.4258 18.5156C26.4258 18.211 26.2681 17.9281 26.0089 17.768C25.7498 17.6079 25.4262 17.5932 25.1538 17.7295C24.6142 17.9993 22.1576 19.2276 21.6382 19.4873C21.204 19.7044 21.0281 20.2323 21.2452 20.6665C21.4622 21.1007 21.9901 21.2766 22.4243 21.0595L23.1328 20.7053L24.4949 28.2422H21.1523V25.5469C21.1523 25.0615 20.7588 24.668 20.2734 24.668C19.788 24.668 19.3945 25.0615 19.3945 25.5469V28.2422H15.8789V23.7891C15.8789 23.3037 15.4854 22.9102 15 22.9102C14.5146 22.9102 14.1211 23.3037 14.1211 23.7891V28.2422H10.6055V25.5469C10.6055 25.0615 10.212 24.668 9.72656 24.668C9.24117 24.668 8.84766 25.0615 8.84766 25.5469V28.2422H5.50512L6.86719 20.7053L7.5757 21.0596C8.01006 21.2767 8.53787 21.1005 8.75484 20.6665C8.97193 20.2324 8.79598 19.7044 8.3618 19.4873C7.84154 19.2272 5.38477 17.9988 4.84617 17.7295C4.57365 17.5932 4.25004 17.6079 3.99105 17.768C3.73189 17.9281 3.57422 18.211 3.57422 18.5156C3.57422 18.9838 3.13611 19.3945 2.63672 19.3945C2.15209 19.3945 1.75781 19.0003 1.75781 18.5156V16.7578C1.75781 16.2732 2.15209 15.8789 2.63672 15.8789H7.96875C8.45414 15.8789 8.84766 15.4854 8.84766 15C8.84766 14.5146 8.45414 14.1211 7.96875 14.1211H7.08984V9.72656C7.08984 5.33256 10.6383 1.75781 15 1.75781C19.3617 1.75781 22.9102 5.33256 22.9102 9.72656V14.1211H22.0312C21.5459 14.1211 21.1523 14.5146 21.1523 15C21.1523 15.4854 21.5459 15.8789 22.0312 15.8789H27.3633C27.8479 15.8789 28.2422 16.2732 28.2422 16.7578V18.5156Z" fill="white"/>
<path d="M15 12.3633C13.5461 12.3633 12.3633 13.5461 12.3633 15V16.7578C12.3633 18.2117 13.5461 19.3945 15 19.3945C16.4539 19.3945 17.6367 18.2117 17.6367 16.7578V15C17.6367 13.5461 16.4539 12.3633 15 12.3633ZM15.8789 16.7578C15.8789 17.2424 15.4846 17.6367 15 17.6367C14.5154 17.6367 14.1211 17.2424 14.1211 16.7578V15C14.1211 14.5154 14.5154 14.1211 15 14.1211C15.4846 14.1211 15.8789 14.5154 15.8789 15V16.7578Z" fill="white"/>
</svg>

<svg width="30" height="30" fill="none" xmlns="http://www.w3.org/2000/svg"><path d="M18.516 7.09a2.64 2.64 0 00-2.637 2.637 2.64 2.64 0 002.637 2.636 2.64 2.64 0 002.636-2.636 2.64 2.64 0 00-2.636-2.637zm0 3.515a.88.88 0 010-1.757.88.88 0 010 1.757zM11.484 7.09a2.64 2.64 0 00-2.636 2.637 2.64 2.64 0 002.636 2.636 2.64 2.64 0 002.637-2.636 2.64 2.64 0 00-2.637-2.637zm0 3.515a.88.88 0 010-1.757.88.88 0 010 1.757z" fill="#fff"/><path d="M27.363 14.121h-2.695V9.727C24.668 4.363 20.331 0 15 0 9.67 0 5.332 4.363 5.332 9.727v4.394H2.637A2.64 2.64 0 000 16.758v1.758a2.64 2.64 0 002.637 2.636 2.73 2.73 0 002.365-1.379l.227.113-1.64 9.079A.879.879 0 004.452 30h21.094a.879.879 0 00.865-1.035l-1.64-9.079.226-.113a2.728 2.728 0 002.365 1.38A2.64 2.64 0 0030 18.515v-1.758a2.64 2.64 0 00-2.637-2.637zm.88 4.395a.88.88 0 01-.88.879c-.5 0-.937-.411-.937-.88a.879.879 0 00-1.272-.785l-3.516 1.757a.879.879 0 10.786 1.573l.709-.355 1.362 7.537h-3.343v-2.695a.879.879 0 00-1.758 0v2.695H15.88V23.79a.879.879 0 00-1.758 0v4.453h-3.516v-2.695a.879.879 0 00-1.757 0v2.695H5.505l1.362-7.537.709.355a.879.879 0 00.786-1.573L4.846 17.73a.879.879 0 00-1.272.786c0 .468-.438.879-.937.879a.88.88 0 01-.88-.88v-1.757a.88.88 0 01.88-.88h5.332a.879.879 0 000-1.757h-.88V9.727c0-4.394 3.55-7.97 7.911-7.97 4.362 0 7.91 3.576 7.91 7.97v4.394h-.879a.879.879 0 000 1.758h5.332a.88.88 0 01.88.879v1.758z" fill="#fff"/><path d="M15 12.363A2.64 2.64 0 0012.363 15v1.758A2.64 2.64 0 0015 19.395a2.64 2.64 0 002.637-2.637V15A2.64 2.64 0 0015 12.363zm.879 4.395a.88.88 0 01-1.758 0V15a.88.88 0 011.758 0v1.758z" fill="#fff"/></svg>
